Dominus_Dark_Funeral/scalable/apps/libreoffice-math.svg

<svg xmlns="http://www.w3.org/2000/svg" xmlns:xlink="http://www.w3.org/1999/xlink" width="48" height="48" viewBox="0 0 12.7 12.7"><defs><linearGradient id="b"><stop offset="0" stop-color="#b7bec8"/><stop offset="1" stop-color="#535d6c"/></linearGradient><linearGradient id="d"><stop offset="0" stop-color="#fff"/><stop offset="1" stop-color="#535d6c"/></linearGradient><linearGradient id="a"><stop offset="0"/><stop offset="1" stop-opacity=".19"/></linearGradient><linearGradient xlink:href="#a" id="f" gradientUnits="userSpaceOnUse" x1="1.38" y1="2.92" x2="15.55" y2="9.88"/><radialGradient xlink:href="#b" id="e" cx="9.68" cy="2.68" fx="9.68" fy="2.68" r="5.35" gradientTransform="matrix(.06616 1.06853 -1.16839 .07235 12.17 -8.48)" gradientUnits="userSpaceOnUse"/><radialGradient xlink:href="#d" id="c" gradientUnits="userSpaceOnUse" gradientTransform="matrix(.06616 1.06853 -1.16839 .07235 -3.7 -8.48)" cx="9.68" cy="2.68" fx="9.68" fy="2.68" r="5.35"/></defs><path d="M6.35.1C4.81.1 3.57.38 2.66.96A3.67 3.67 0 0 0 1 4.22c0 1.91 1.54 4.47 2.01 5.2.54.85 1.13 1.61 1.65 2.16.68.7 1.21 1.03 1.69 1.03s1.01-.33 1.69-1.03a15.2 15.2 0 0 0 1.65-2.15c.47-.74 2-3.3 2-5.21 0-1.42-.57-2.54-1.65-3.25A6.75 6.75 0 0 0 6.35.1z" fill="url(#e)"/><path d="M7.35 12.16c.22-.16.44-.32.69-.58a15.2 15.2 0 0 0 1.65-2.15 21 21 0 0 0 1.18-2.17c.22-.48.42-1 .57-1.52.15-.52.25-1.04.25-1.52 0-.2-.04-.38-.06-.57L9.88 1.78H3v5.9z" opacity=".5" fill="url(#f)"/><path d="M1.04 3.9c0 .1-.04.2-.04.32 0 1.91 1.54 4.47 2.01 5.2.54.85 1.13 1.61 1.65 2.16.68.7 1.21 1.03 1.69 1.03s1.01-.33 1.69-1.03a15.2 15.2 0 0 0 1.65-2.15c.47-.74 2-3.3 2-5.21 0-.11-.02-.21-.03-.32a5.5 5.5 0 0 1-.21 1.3c-.15.53-.36 1.05-.58 1.53-.44.97-.95 1.8-1.18 2.17a15.2 15.2 0 0 1-1.65 2.15 4.9 4.9 0 0 1-.92.78c-.28.17-.53.25-.77.25s-.5-.08-.77-.25a4.76 4.76 0 0 1-.92-.78A14.41 14.41 0 0 1 3.01 8.9a19.2 19.2 0 0 1-1.18-2.17c-.22-.48-.43-1-.58-1.52a5.66 5.66 0 0 1-.21-1.31z" opacity=".5"/><path d="M3 1.78v5.9h6.88v-5.9zm.33.21h6.23c.06 0 .1.05.1.1v3.88a.1.1 0 0 1-.1.1H3.33a.1.1 0 0 1-.11-.1V2.1c0-.06.05-.1.1-.1zm-.11 4.4h6.45v1.08H3.22z" opacity=".6" fill="#fff"/><path d="M3.54 2.1v.1h-.1v.11h.1v.11h.12v-.1h.1V2.2h-.1v-.1zm2.8 0v.1H6v.11h.33v.11h.11v-.1h.32V2.2h-.32v-.1zm2.79 0v.1h-.1v.11h.1v.11h.12v-.1h.1V2.2h-.1v-.1zm-5.27.1v.11h.33v-.1zm.43 0v.11h.33v-.1zm.43 0v.11h.33v-.1zm.43 0v.11h.33v-.1zm.43 0v.11h.33v-.1zm1.3 0v.11h.32v-.1zm.42 0v.11h.33v-.1zm.43 0v.11h.33v-.1zm.43 0v.11h.33v-.1zm.43 0v.11h.33v-.1zm-5.05.33v.32h.12v-.32zm2.8 0v.32h.11v-.32zm2.79 0v.32h.12v-.32zm-5.59.43v.32h.12v-.32zm2.8 0v.32h.11v-.32zm2.79 0v.32h.12v-.32zm-5.7.43v.1h.11v.22h.12V3.5h.1v-.11h-.22zm.43 0v.1h.33v-.1zm.43 0v.1h.33v-.1zm.43 0v.1h.33v-.1zm.43 0v.1h.33v-.1zm.43 0v.1h.33v-.1zm.43 0v.1h.33v.22h.11V3.5h.32v-.11H6zm.86 0v.1h.33v-.1zm.43 0v.1h.33v-.1zm.43 0v.1h.33v-.1zm.43 0v.1h.33v-.1zm.43 0v.1h.33v-.1zm.43 0v.1h.11v.22h.12V3.5h.1v-.11h-.22zm-5.48.43v.32h.12v-.32zm2.8 0v.32h.11v-.32zm2.79 0v.32h.12v-.32zm-5.59.43v.32h.12v-.32zm2.8 0v.32h.11v-.32zm2.79 0v.32h.12v-.32zm-5.59.43V5h.12v-.32zm2.8 0V5h.11v-.32zm2.79 0V5h.12v-.32zm-5.59.43v.32h.12v-.32zm2.8 0v.32h.11v-.32zm2.79 0v.32h.12v-.32zm-5.59.43v.1h-.1v.11h.1v.11h.12v-.1h.1v-.11h-.1v-.11zm2.8 0v.1H6v.11h.33v.11h.11v-.1h.32v-.11h-.32v-.11zm2.79 0v.1h-.1v.11h.1v.11h.12v-.1h.1v-.11h-.1v-.11zm-5.27.1v.11h.33v-.1zm.43 0v.11h.33v-.1zm.43 0v.11h.33v-.1zm.43 0v.11h.33v-.1zm.43 0v.11h.33v-.1zm1.3 0v.11h.32v-.1zm.42 0v.11h.33v-.1zm.43 0v.11h.33v-.1zm.43 0v.11h.33v-.1zm.43 0v.11h.33v-.1z" fill="#f09e6f"/><path d="M6.01 2.2L4.87 4.9l-.68-1.28-.65.24.12.39.31-.16.8 1.66h.2l1.31-3.11h2.64v.21h.32v-.64H6zm.39 1.2l1.04 1.15v.02l-1.08 1.2h.54l.83-.9h.01l.92.9h.58L8.05 4.53v-.02l1.1-1.13h-.53l-.87.82h-.02l-.77-.82zm.9 3.1c-.07 0-.13.02-.15.04-.03.02-.04.07-.04.13v.11c0 .05 0 .08-.02.1-.02.02-.05.03-.1.03h-.02v.06H7c.04 0 .07.01.08.03.02.02.03.05.03.1v.1c0 .07.01.12.04.14.02.02.08.03.15.03h.03V7.3H7.3c-.04 0-.07 0-.08-.02-.02-.01-.02-.04-.02-.09v-.11a.2.2 0 0 0-.02-.1c-.02-.03-.04-.04-.08-.05.04 0 .06-.02.07-.05a.2.2 0 0 0 .03-.1v-.11l.01-.09.09-.02h.03v-.07zm.75 0v.07h.03c.05 0 .07 0 .09.02.01.01.02.04.02.09v.11c0 .05 0 .08.02.1.01.03.04.04.07.05-.04 0-.06.02-.07.04a.2.2 0 0 0-.02.1v.12c0 .05-.01.07-.02.09-.02.01-.04.02-.09.02h-.03v.06h.03c.08 0 .13 0 .15-.03.03-.02.04-.07.04-.14v-.1c0-.05 0-.08.03-.1.01-.02.04-.03.09-.03h.02V6.9h-.02c-.05 0-.08-.01-.1-.03l-.02-.1v-.1c0-.07-.01-.12-.04-.14-.02-.02-.07-.04-.15-.04zm-1.59.1v.15h-.13v.06h.13v.28c0 .06.02.1.04.13.03.03.07.04.14.04h.1v-.07h-.1c-.03 0-.06 0-.07-.02l-.02-.08V6.8h.19v-.06h-.2v-.15zm-1.64.12a.22.22 0 0 0-.14.04.14.14 0 0 0-.05.11c0 .04 0 .07.03.1a.2.2 0 0 0 .1.04l.04.01c.08.02.12.04.12.08 0 .03-.01.05-.03.07a.15.15 0 0 1-.1.02l-.07-.01a.5.5 0 0 1-.1-.04v.09a.7.7 0 0 0 .18.03c.06 0 .11-.01.15-.04A.14.14 0 0 0 5 7.1a.13.13 0 0 0-.03-.1.16.16 0 0 0-.1-.04h-.03a.29.29 0 0 1-.1-.04.055.055 0 0 1-.03-.05c0-.03.01-.05.03-.06a.16.16 0 0 1 .09-.02l.07.01c.03 0 .05.02.08.03v-.08a.4.4 0 0 0-.16-.03zm.54 0a.17.17 0 0 0-.15.07.33.33 0 0 0-.05.2c0 .09.02.15.05.2.04.05.09.07.15.07.03 0 .06 0 .08-.02a.15.15 0 0 0 .06-.06v.27h.08v-.72H5.5v.07a.14.14 0 0 0-.06-.06.16.16 0 0 0-.08-.02zm.72.01a.17.17 0 0 0-.17.11v-.1h-.08v.52h.08V7c0-.06.01-.1.04-.14.03-.04.07-.05.12-.05a.2.2 0 0 1 .06 0 .2.2 0 0 1 .06.04v-.09a.19.19 0 0 0-.11-.03zm1.37 0l.18.25-.2.27h.1l.15-.2.15.2h.1l-.2-.27.18-.25h-.1l-.13.19-.14-.19zm-2.08.06a.1.1 0 0 1 .1.05c.02.04.03.09.03.15 0 .07-.01.12-.03.15a.1.1 0 0 1-.1.05.1.1 0 0 1-.09-.05.29.29 0 0 1-.03-.15c0-.06.01-.11.03-.15a.1.1 0 0 1 .1-.05z" fill="#fff"/></svg>

<?xml version="1.0" encoding="UTF-8" standalone="no"?>
<svg
   xmlns:dc="http://purl.org/dc/elements/1.1/"
   xmlns:cc="http://creativecommons.org/ns#"
   xmlns:rdf="http://www.w3.org/1999/02/22-rdf-syntax-ns#"
   xmlns:svg="http://www.w3.org/2000/svg"
   xmlns="http://www.w3.org/2000/svg"
   xmlns:xlink="http://www.w3.org/1999/xlink"
   xmlns:sodipodi="http://sodipodi.sourceforge.net/DTD/sodipodi-0.dtd"
   xmlns:inkscape="http://www.inkscape.org/namespaces/inkscape"
   width="48"
   height="48"
   viewBox="0 0 12.7 12.7"
   version="1.1"
   id="svg34"
   sodipodi:docname="libreoffice-math.svg"
   inkscape:version="0.92.4 (5da689c313, 2019-01-14)">
  <metadata
     id="metadata38">
    <rdf:RDF>
      <cc:Work
         rdf:about="">
        <dc:format>image/svg+xml</dc:format>
        <dc:type
           rdf:resource="http://purl.org/dc/dcmitype/StillImage" />
        <dc:title></dc:title>
      </cc:Work>
    </rdf:RDF>
  </metadata>
  <sodipodi:namedview
     pagecolor="#ffffff"
     bordercolor="#666666"
     borderopacity="1"
     objecttolerance="10"
     gridtolerance="10"
     guidetolerance="10"
     inkscape:pageopacity="0"
     inkscape:pageshadow="2"
     inkscape:window-width="1112"
     inkscape:window-height="480"
     id="namedview36"
     showgrid="false"
     inkscape:zoom="4.9166667"
     inkscape:cx="2.1355932"
     inkscape:cy="24"
     inkscape:window-x="0"
     inkscape:window-y="25"
     inkscape:window-maximized="0"
     inkscape:current-layer="svg34" />
  <defs
     id="defs20">
    <linearGradient
       id="b">
      <stop
         offset="0"
         stop-color="#b7bec8"
         id="stop2" />
      <stop
         offset="1"
         stop-color="#535d6c"
         id="stop4" />
    </linearGradient>
    <linearGradient
       id="d">
      <stop
         offset="0"
         stop-color="#fff"
         id="stop7" />
      <stop
         offset="1"
         stop-color="#535d6c"
         id="stop9" />
    </linearGradient>
    <linearGradient
       id="a">
      <stop
         offset="0"
         id="stop12" />
      <stop
         offset="1"
         stop-opacity=".19"
         id="stop14" />
    </linearGradient>
    <linearGradient
       xlink:href="#a"
       id="f"
       gradientUnits="userSpaceOnUse"
       x1="1.38"
       y1="2.92"
       x2="15.55"
       y2="9.88" />
    <radialGradient
       xlink:href="#b"
       id="e"
       cx="9.68"
       cy="2.68"
       fx="9.68"
       fy="2.68"
       r="5.35"
       gradientTransform="matrix(0.06616,1.06853,-1.16839,0.07235,12.17,-8.48)"
       gradientUnits="userSpaceOnUse" />
    <radialGradient
       xlink:href="#d"
       id="c"
       gradientUnits="userSpaceOnUse"
       gradientTransform="matrix(.06616 1.06853 -1.16839 .07235 -3.7 -8.48)"
       cx="9.68"
       cy="2.68"
       fx="9.68"
       fy="2.68"
       r="5.35" />
  </defs>
  <path
     d="M 6.35,0.1 C 4.81,0.1 3.57,0.38 2.66,0.96 A 3.67,3.67 0 0 0 1,4.22 c 0,1.91 1.54,4.47 2.01,5.2 0.54,0.85 1.13,1.61 1.65,2.16 0.68,0.7 1.21,1.03 1.69,1.03 0.48,0 1.01,-0.33 1.69,-1.03 A 15.2,15.2 0 0 0 9.69,9.43 c 0.47,-0.74 2,-3.3 2,-5.21 0,-1.42 -0.57,-2.54 -1.65,-3.25 A 6.75,6.75 0 0 0 6.35,0.1 Z"
     id="path22"
     style="fill:url(#e)"
     inkscape:connector-curvature="0" />
  <path
     d="M 7.35,12.16 C 7.57,12 7.79,11.84 8.04,11.58 A 15.2,15.2 0 0 0 9.69,9.43 21,21 0 0 0 10.87,7.26 c 0.22,-0.48 0.42,-1 0.57,-1.52 0.15,-0.52 0.25,-1.04 0.25,-1.52 0,-0.2 -0.04,-0.38 -0.06,-0.57 L 9.88,1.78 H 3 v 5.9 z"
     id="path24"
     style="opacity:0.5;fill:url(#f)"
     inkscape:connector-curvature="0" />
  <path
     d="M 1.04,3.9 C 1.04,4 1,4.1 1,4.22 c 0,1.91 1.54,4.47 2.01,5.2 0.54,0.85 1.13,1.61 1.65,2.16 0.68,0.7 1.21,1.03 1.69,1.03 0.48,0 1.01,-0.33 1.69,-1.03 A 15.2,15.2 0 0 0 9.69,9.43 c 0.47,-0.74 2,-3.3 2,-5.21 0,-0.11 -0.02,-0.21 -0.03,-0.32 A 5.5,5.5 0 0 1 11.45,5.2 C 11.3,5.73 11.09,6.25 10.87,6.73 10.43,7.7 9.92,8.53 9.69,8.9 A 15.2,15.2 0 0 1 8.04,11.05 4.9,4.9 0 0 1 7.12,11.83 C 6.84,12 6.59,12.08 6.35,12.08 6.11,12.08 5.85,12 5.58,11.83 A 4.76,4.76 0 0 1 4.66,11.05 14.41,14.41 0 0 1 3.01,8.9 19.2,19.2 0 0 1 1.83,6.73 C 1.61,6.25 1.4,5.73 1.25,5.21 A 5.66,5.66 0 0 1 1.04,3.9 Z"
     id="path26"
     inkscape:connector-curvature="0"
     style="opacity:0.5" />
  <path
     d="m 3,1.78 v 5.9 h 6.88 v -5.9 z m 0.33,0.21 h 6.23 c 0.06,0 0.1,0.05 0.1,0.1 v 3.88 a 0.1,0.1 0 0 1 -0.1,0.1 H 3.33 A 0.1,0.1 0 0 1 3.22,5.97 V 2.1 C 3.22,2.04 3.27,2 3.32,2 Z M 3.22,6.39 H 9.67 V 7.47 H 3.22 Z"
     id="path28"
     inkscape:connector-curvature="0"
     style="opacity:0.6;fill:#ffffff" />
  <path
     d="m 3.54,2.1 v 0.1 h -0.1 v 0.11 h 0.1 v 0.11 h 0.12 v -0.1 h 0.1 V 2.2 H 3.66 V 2.1 Z m 2.8,0 V 2.2 H 6 V 2.31 H 6.33 V 2.42 H 6.44 V 2.32 H 6.76 V 2.2 H 6.44 V 2.1 Z m 2.79,0 v 0.1 h -0.1 v 0.11 h 0.1 v 0.11 h 0.12 v -0.1 h 0.1 V 2.2 H 9.25 V 2.1 Z M 3.86,2.2 v 0.11 h 0.33 v -0.1 z m 0.43,0 v 0.11 h 0.33 v -0.1 z m 0.43,0 v 0.11 h 0.33 v -0.1 z m 0.43,0 v 0.11 h 0.33 v -0.1 z m 0.43,0 v 0.11 h 0.33 v -0.1 z m 1.3,0 V 2.31 H 7.2 v -0.1 z m 0.42,0 v 0.11 h 0.33 v -0.1 z m 0.43,0 v 0.11 h 0.33 v -0.1 z m 0.43,0 v 0.11 h 0.33 v -0.1 z m 0.43,0 V 2.31 H 8.92 V 2.21 Z M 3.54,2.53 V 2.85 H 3.66 V 2.53 Z m 2.8,0 V 2.85 H 6.45 V 2.53 Z m 2.79,0 V 2.85 H 9.25 V 2.53 Z M 3.54,2.96 V 3.28 H 3.66 V 2.96 Z m 2.8,0 V 3.28 H 6.45 V 2.96 Z m 2.79,0 V 3.28 H 9.25 V 2.96 Z m -5.7,0.43 v 0.1 H 3.54 V 3.71 H 3.66 V 3.5 h 0.1 V 3.39 H 3.54 Z m 0.43,0 v 0.1 h 0.33 v -0.1 z m 0.43,0 v 0.1 h 0.33 v -0.1 z m 0.43,0 v 0.1 h 0.33 v -0.1 z m 0.43,0 v 0.1 h 0.33 v -0.1 z m 0.43,0 v 0.1 h 0.33 v -0.1 z m 0.43,0 v 0.1 H 6.34 V 3.71 H 6.45 V 3.5 H 6.77 V 3.39 H 6 Z m 0.86,0 v 0.1 H 7.2 v -0.1 z m 0.43,0 v 0.1 h 0.33 v -0.1 z m 0.43,0 v 0.1 h 0.33 v -0.1 z m 0.43,0 v 0.1 h 0.33 v -0.1 z m 0.43,0 v 0.1 h 0.33 v -0.1 z m 0.43,0 v 0.1 H 9.13 V 3.71 H 9.25 V 3.5 h 0.1 V 3.39 H 9.13 Z M 3.54,3.82 V 4.14 H 3.66 V 3.82 Z m 2.8,0 V 4.14 H 6.45 V 3.82 Z m 2.79,0 V 4.14 H 9.25 V 3.82 Z M 3.54,4.25 V 4.57 H 3.66 V 4.25 Z m 2.8,0 V 4.57 H 6.45 V 4.25 Z m 2.79,0 V 4.57 H 9.25 V 4.25 Z M 3.54,4.68 V 5 H 3.66 V 4.68 Z m 2.8,0 V 5 H 6.45 V 4.68 Z m 2.79,0 V 5 H 9.25 V 4.68 Z M 3.54,5.11 V 5.43 H 3.66 V 5.11 Z m 2.8,0 V 5.43 H 6.45 V 5.11 Z m 2.79,0 V 5.43 H 9.25 V 5.11 Z M 3.54,5.54 v 0.1 h -0.1 v 0.11 h 0.1 v 0.11 h 0.12 v -0.1 h 0.1 V 5.65 H 3.66 V 5.54 Z m 2.8,0 v 0.1 H 6 V 5.75 H 6.33 V 5.86 H 6.44 V 5.76 H 6.76 V 5.65 H 6.44 V 5.54 Z m 2.79,0 v 0.1 h -0.1 v 0.11 h 0.1 v 0.11 h 0.12 v -0.1 h 0.1 V 5.65 H 9.25 V 5.54 Z m -5.27,0.1 v 0.11 h 0.33 v -0.1 z m 0.43,0 v 0.11 h 0.33 v -0.1 z m 0.43,0 v 0.11 h 0.33 v -0.1 z m 0.43,0 v 0.11 h 0.33 v -0.1 z m 0.43,0 v 0.11 h 0.33 v -0.1 z m 1.3,0 V 5.75 H 7.2 v -0.1 z m 0.42,0 v 0.11 h 0.33 v -0.1 z m 0.43,0 v 0.11 h 0.33 v -0.1 z m 0.43,0 v 0.11 h 0.33 v -0.1 z m 0.43,0 v 0.11 h 0.33 v -0.1 z"
     id="path30"
     inkscape:connector-curvature="0"
     style="fill:#f09e6f" />
  <path
     d="M 6.01,2.2 4.87,4.9 4.19,3.62 3.54,3.86 3.66,4.25 3.97,4.09 4.77,5.75 h 0.2 L 6.28,2.64 H 8.92 V 2.85 H 9.24 V 2.21 H 6 Z M 6.4,3.4 7.44,4.55 V 4.57 L 6.36,5.77 H 6.9 l 0.83,-0.9 h 0.01 l 0.92,0.9 H 9.24 L 8.05,4.53 V 4.51 L 9.15,3.38 H 8.62 L 7.75,4.2 H 7.73 L 6.96,3.38 Z M 7.3,6.5 C 7.23,6.5 7.17,6.52 7.15,6.54 7.12,6.56 7.11,6.61 7.11,6.67 v 0.11 c 0,0.05 0,0.08 -0.02,0.1 C 7.07,6.9 7.04,6.91 6.99,6.91 H 6.97 V 6.97 H 7 C 7.04,6.97 7.07,6.98 7.08,7 7.1,7.02 7.11,7.05 7.11,7.1 v 0.1 c 0,0.07 0.01,0.12 0.04,0.14 0.02,0.02 0.08,0.03 0.15,0.03 H 7.33 V 7.3 H 7.3 C 7.26,7.3 7.23,7.3 7.22,7.28 7.2,7.27 7.2,7.24 7.2,7.19 V 7.08 A 0.2,0.2 0 0 0 7.18,6.98 C 7.16,6.95 7.14,6.94 7.1,6.93 7.14,6.93 7.16,6.91 7.17,6.88 A 0.2,0.2 0 0 0 7.2,6.78 V 6.67 L 7.21,6.58 7.3,6.56 H 7.33 V 6.49 Z m 0.75,0 v 0.07 h 0.03 c 0.05,0 0.07,0 0.09,0.02 0.01,0.01 0.02,0.04 0.02,0.09 v 0.11 c 0,0.05 0,0.08 0.02,0.1 0.01,0.03 0.04,0.04 0.07,0.05 -0.04,0 -0.06,0.02 -0.07,0.04 A 0.2,0.2 0 0 0 8.19,7.08 V 7.2 C 8.19,7.25 8.18,7.27 8.17,7.29 8.15,7.3 8.13,7.31 8.08,7.31 H 8.05 v 0.06 h 0.03 c 0.08,0 0.13,0 0.15,-0.03 C 8.26,7.32 8.27,7.27 8.27,7.2 V 7.1 C 8.27,7.05 8.27,7.02 8.3,7 8.31,6.98 8.34,6.97 8.39,6.97 H 8.41 V 6.9 H 8.39 C 8.34,6.9 8.31,6.89 8.29,6.87 L 8.27,6.77 V 6.67 C 8.27,6.6 8.26,6.55 8.23,6.53 8.21,6.51 8.16,6.49 8.08,6.49 Z M 6.46,6.6 V 6.75 H 6.33 v 0.06 h 0.13 v 0.28 c 0,0.06 0.02,0.1 0.04,0.13 0.03,0.03 0.07,0.04 0.14,0.04 h 0.1 V 7.19 h -0.1 c -0.03,0 -0.06,0 -0.07,-0.02 L 6.55,7.09 V 6.8 H 6.74 V 6.74 H 6.54 V 6.59 Z M 4.82,6.72 A 0.22,0.22 0 0 0 4.68,6.76 0.14,0.14 0 0 0 4.63,6.87 c 0,0.04 0,0.07 0.03,0.1 a 0.2,0.2 0 0 0 0.1,0.04 L 4.8,7.02 C 4.88,7.04 4.92,7.06 4.92,7.1 4.92,7.13 4.91,7.15 4.89,7.17 A 0.15,0.15 0 0 1 4.79,7.19 L 4.72,7.18 A 0.5,0.5 0 0 1 4.62,7.14 V 7.23 A 0.7,0.7 0 0 0 4.8,7.26 c 0.06,0 0.11,-0.01 0.15,-0.04 A 0.14,0.14 0 0 0 5,7.1 0.13,0.13 0 0 0 4.97,7 0.16,0.16 0 0 0 4.87,6.96 H 4.84 A 0.29,0.29 0 0 1 4.74,6.92 0.055,0.055 0 0 1 4.71,6.87 C 4.71,6.84 4.72,6.82 4.74,6.81 A 0.16,0.16 0 0 1 4.83,6.79 L 4.9,6.8 c 0.03,0 0.05,0.02 0.08,0.03 V 6.75 A 0.4,0.4 0 0 0 4.82,6.72 Z m 0.54,0 A 0.17,0.17 0 0 0 5.21,6.79 0.33,0.33 0 0 0 5.16,6.99 c 0,0.09 0.02,0.15 0.05,0.2 0.04,0.05 0.09,0.07 0.15,0.07 0.03,0 0.06,0 0.08,-0.02 A 0.15,0.15 0 0 0 5.5,7.18 V 7.45 H 5.58 V 6.73 H 5.5 V 6.8 A 0.14,0.14 0 0 0 5.44,6.74 0.16,0.16 0 0 0 5.36,6.72 Z M 6.08,6.73 A 0.17,0.17 0 0 0 5.91,6.84 V 6.74 H 5.83 V 7.26 H 5.91 V 7 C 5.91,6.94 5.92,6.9 5.95,6.86 5.98,6.82 6.02,6.81 6.07,6.81 a 0.2,0.2 0 0 1 0.06,0 0.2,0.2 0 0 1 0.06,0.04 V 6.76 A 0.19,0.19 0 0 0 6.08,6.73 Z m 1.37,0 0.18,0.25 -0.2,0.27 h 0.1 l 0.15,-0.2 0.15,0.2 h 0.1 L 7.73,6.98 7.91,6.73 H 7.81 L 7.68,6.92 7.54,6.73 Z M 5.37,6.79 a 0.1,0.1 0 0 1 0.1,0.05 C 5.49,6.88 5.5,6.93 5.5,6.99 5.5,7.06 5.49,7.11 5.47,7.14 A 0.1,0.1 0 0 1 5.37,7.19 0.1,0.1 0 0 1 5.28,7.14 0.29,0.29 0 0 1 5.25,6.99 c 0,-0.06 0.01,-0.11 0.03,-0.15 a 0.1,0.1 0 0 1 0.1,-0.05 z"
     id="path32"
     inkscape:connector-curvature="0"
     style="fill:#ffffff" />
</svg>
